package/converter/svg/light/transformer-bolt.svg

<svg xmlns="http://www.w3.org/2000/svg" viewBox="0 0 384 512"><!-- Font Awesome Pro 6.0.0-alpha2 by @fontawesome - https://fontawesome.com License - https://fontawesome.com/license (Commercial License) --><path d="M224 128H320C328.836 128 336 120.836 336 112C336 103.162 328.836 96 320 96H224C215.164 96 208 103.162 208 112C208 120.836 215.164 128 224 128ZM64 64H160C168.836 64 176 56.836 176 48C176 39.162 168.836 32 160 32H128V16C128 7.16 120.836 0 112 0S96 7.16 96 16V32H64C55.164 32 48 39.162 48 48C48 56.836 55.164 64 64 64ZM368 480H352V192H368C376.836 192 384 184.836 384 176C384 167.162 376.836 160 368 160H16C7.164 160 0 167.162 0 176C0 184.836 7.164 192 16 192H32V480H16C7.164 480 0 487.162 0 496C0 504.836 7.164 512 16 512H368C376.836 512 384 504.836 384 496C384 487.162 376.836 480 368 480ZM320 480H64V192H320V480ZM224 64H320C328.836 64 336 56.836 336 48C336 39.162 328.836 32 320 32H288V16C288 7.16 280.836 0 272 0S256 7.16 256 16V32H224C215.164 32 208 39.162 208 48C208 56.836 215.164 64 224 64ZM64 128H160C168.836 128 176 120.836 176 112C176 103.162 168.836 96 160 96H64C55.164 96 48 103.162 48 112C48 120.836 55.164 128 64 128ZM128 352H217.375L148.688 420.688C142.438 426.938 142.438 437.063 148.688 443.312C151.812 446.438 155.906 448 160 448S168.188 446.438 171.312 443.312L267.312 347.312C271.875 342.734 273.25 335.859 270.781 329.875S262.469 320 256 320H166.625L235.312 251.312C241.562 245.062 241.562 234.937 235.312 228.688S218.937 222.438 212.688 228.688L116.688 324.688C112.125 329.266 110.75 336.141 113.219 342.125S121.531 352 128 352Z"/></svg>

<svg xmlns="http://www.w3.org/2000/svg" viewBox="0 0 384 512"><!--! Font Awesome Pro 6.6.0 by @fontawesome - https://fontawesome.com License - https://fontawesome.com/license (Commercial License) Copyright 2024 Fonticons, Inc. --><path d="M128 16c0-8.8-7.2-16-16-16s-16 7.2-16 16l0 16L64 32c-8.8 0-16 7.2-16 16s7.2 16 16 16l96 0c8.8 0 16-7.2 16-16s-7.2-16-16-16l-32 0 0-16zm160 0c0-8.8-7.2-16-16-16s-16 7.2-16 16l0 16-32 0c-8.8 0-16 7.2-16 16s7.2 16 16 16l96 0c8.8 0 16-7.2 16-16s-7.2-16-16-16l-32 0 0-16zM48 112c0 8.8 7.2 16 16 16l96 0c8.8 0 16-7.2 16-16s-7.2-16-16-16L64 96c-8.8 0-16 7.2-16 16zm160 0c0 8.8 7.2 16 16 16l96 0c8.8 0 16-7.2 16-16s-7.2-16-16-16l-96 0c-8.8 0-16 7.2-16 16zM16 160c-8.8 0-16 7.2-16 16s7.2 16 16 16l16 0 0 288-16 0c-8.8 0-16 7.2-16 16s7.2 16 16 16l32 0 288 0 32 0c8.8 0 16-7.2 16-16s-7.2-16-16-16l-16 0 0-288 16 0c8.8 0 16-7.2 16-16s-7.2-16-16-16l-32 0L48 160l-32 0zM64 480l0-288 256 0 0 288L64 480zm78.6-144l61.9-61.9-4.4 44.3c-.4 4.5 1 9 4.1 12.3s7.3 5.3 11.9 5.3l25.4 0-61.9 61.9 4.4-44.3c.4-4.5-1-9-4.1-12.3s-7.3-5.3-11.9-5.3l-25.4 0zm75.6-112c-5.6 0-11 2.2-15 6.2L102.3 331c-4.1 4.1-6.3 9.6-6.3 15.3c0 12 9.7 21.7 21.7 21.7l32.7 0-5.7 56.6c-1.3 12.5 8.6 23.4 21.2 23.4c5.6 0 11-2.2 15-6.2L281.7 341c4.1-4.1 6.3-9.6 6.3-15.3c0-12-9.7-21.7-21.7-21.7l-32.7 0 5.7-56.6c1.3-12.5-8.6-23.4-21.2-23.4z"/></svg>
